X:1
T:Nun töne der Jubel im frohen Gesang
T:Nun töne der Jubel im frohen Gesang
T:Der arme Heinrich
T:Josef Rheinberger 
C:Josef Rheinberger
%%score [ 1 2 3 ] { ( 4 5 ) | ( 6 7 ) }
L:1/8
Q:1/2=104
M:2/2
K:Eb
V:1 treble nm="S1"
V:2 treble nm="S2"
V:3 treble nm="A"
V:4 treble nm="Piano"
V:5 treble 
V:6 bass 
V:7 bass 
V:1
"^Allegro molto" z8 | z8 | z8 | z4 z2!f! E2 | E4 D2 E2 | G4 E2 E2 | c4 c2 c2 | B4 z2 B2 | %8
w: |||Nun|tö- ne der|Ju- bel im|fro- hen Ge-|sang, es|
!<(! e4 B2 e2!<)! | g4 e2 e2 | (d2 B2) =A2 c2 | B6 z2 | z8 | z8 | z8 | z4 z2 B2 | _d4 c2 c2 | %17
w: le- be der|Hein- rich, er|le- * be noch|lang!||||Ge-|prie- sen sei|
 B4 B4 | c4 B2 B2 | e4 z2 e2 | e4 d2 c2 | c4!<(! B2 A2!<)! | f4!>(! f2 e2 | d8!>)! | z8 | z8 | z8 | %27
w: laut sein|fro- hes Ge-|schick! Zum|Va- ter im|Him- mel hebt|dank- bar den|Blick,||||
 z8 |!f! B4 B2 B2 | _d4 d4 | (_d2 c2) B2 c2 |!<(! B6 B2!<)! | e4 e2 e2 | e4 =A2 A2 | B4 A2 G2 | %35
w: |Er sen- det|Trüb- sal,|spen- * det das|Glück, und|führt die Ver-|irr- ten zur|Hei- math zu-|
 F6 z2 |!f! E4 D2 E2 | G4 E4 | c4 c2 c2 | B4!ff! e4 | d4 c2 c2 | B4 G2 G2 | (F3 G) A2 F2 | %43
w: rück!|Er sen- det|Trüb- sal,|spen- det das|Glück, und|führt die Ver-|itt- ten zur|Hei- * math zu-|
 B4!ff! e4 | e4 c2 c2 | B4 G2 G2 | (A3 B) c2 f2 | e4 d2 d2 | e4 z2 e2 | g4 f2 d2 | e4 B4 | %51
w: rück. und|führt die Ver-|itt- ten zur|Hei- * math, zur|Hei- math zu-|rück! zur|Hei- math zu-|rück, zur|
 B4 A2 F2 | E4 z4 | z8 | !fermata!z8 |] %55
w: Hei- math zu-|rück!|||
V:2
 z8 | z8 | z8 | z4 z2!f! E2 | E4 D2 E2 | G4 E2 E2 | A4 A2 A2 | G4 z2 G2 |!<(! B4 G2 B2!<)! | %9
w: |||Nun|tö- ne der|Ju- bel im|fro- hen Ge-|sang, es|le- be der|
 e4 B2 B2 | B4 F2 F2 | F6 F2 | !^!A4 G2 G2 | F4 F4 | G4 F2 F2 | B6 B2 | B4 A2 A2 | G4 G4 | %18
w: Hein- rich, er|le- be noch|lang! Ge-|preis- sen sei|laut sein|fro- hes Ge-|schick, Ge-|prie- sen sei|laut sein|
 A4 G2 G2 | A4 z4 | z8 | z8 | z8 | z4 z2!f! B2 | B4 A2 G2 | G4!<(! F2 E2!<)! | c4!>(! B2 =A2!>)! | %27
w: fro- hes Ge-|schick!||||Zum|Va- ter im|Him- mel er-|he- bet den|
 B6 z2 |!f! B4 B2 B2 | _d4 d4 | A4 A2 A2 |!<(! _G6 G2!<)! | _G4 G2 G2 | _G4 G2 G2 | =G4 F2 E2 | %35
w: Blick!|Er sen- det|Trüb- sal,|spen- det das|Glück, und|führt die Ver-|irr- ten zur|Hei- math zu-|
 D6 z2 |!f! E4 D2 E2 | G4 E4 | A4 A2 A2 | G4!ff! e4 | d4 c2 c2 | B4 E2 E2 | (D3 E) F2 D2 | %43
w: rück!|Er sen- det|Trüb- sal,|spen- det das|Glück, und|führt die Ver-|itt- ten zur|Hei- * math zu-|
 E4!ff! e4 | d4 c2 c2 | B4 E2 E2 | (F3 G) A2 c2 | B4 B2 B2 | B4 z2 B2 | e4 d2 B2 | B4 G4 | %51
w: rück. und|führt die Ver-|itt- ten zur|Hei- * math, zur|Hei- math zu-|rück! zur|Hei- math zu-|rück, zur|
 G4 F2 D2 | E4 z4 | z8 | !fermata!z8 |] %55
w: Hei- math zu-|rück!|||
V:3
 z8 | z8 | z8 | z4 z2!f! E2 | E4 D2 E2 | G4 E2 E2 | E4 E2 E2 | E4 z2 E2 |!<(! G4 E2 G2!<)! | %9
w: |||Nun|tö- ne der|Ju- bel im|fro- hen Ge-|sang, es|le- be der|
 B4 G2 G2 | (F2 D2) E2 E2 | D6 D2 | !^!F4 E2 E2 | D4 D4 | E4 D2 D2 | E6 E2 | E4 E2 E2 | E4 E4 | %18
w: Hein- rich, er|le- * be noch|lang! Ge-|preis- sen sei|laut sein|fro- hes Ge-|schick, Ge-|prie- sen sei|laut sein|
 E4 E2 E2 | E4 z4 | z8 | z8 | z8 | z4 z2!f! D2 | G4 F2 E2 | E4!<(! D2 C2!<)! | E4!>(! D2 C2!>)! | %27
w: fro- hes Ge-|schick!||||Zum|Va- ter im|Him- mel er-|he- bet den|
 D6 z2 |!f! B4 B2 B2 | _d4 d4 | F4 F2 F2 |!<(! _G6 G2!<)! | E4 E2 E2 | E4 E2 E2 | E4 D2 E2 | %35
w: Blick!|Er sen- det|Trüb- sal,|spen- det das|Glück, und|führt die Ver-|irr- ten zur|Hei- math zu-|
 B,6 z2 |!f! E4 D2 E2 | G4 E4 | E4 E2 E2 | E4!ff! E4 | D4 C2 C2 | B,4 B,2 B,2 | B,4 B,2 B,2 | %43
w: rück!|Er sen- det|Trüb- sal,|spen- det das|Glück, und|führt die Ver-|itt- ten zur|Hei- math zu-|
 B,4!ff! E4 | D4 C2 C2 | B,4 C2 C2 | C4 F2 A2 | (A2 F2) B2 A2 | G4 z2 G2 | B4 A2 A2 | G4 E4 | %51
w: rück. und|führt die Ver-|itt- ten zur|Hei- math, zur|Hei- * math zu-|rück! zur|Hei- math zu-|rück, zur|
 D4 D2 A,2 | G,4 z4 | z8 | !fermata!z8 |] %55
w: Hei- math zu-|rück!|||
V:4
!f! (G3 E B2) z2 | (c3 A e2) z2 | (g3 e [EB]2) [B,EG]2 |{/G} (FEFG) [G,E]2 E2 | E4 D2 E2 | %5
 G4 E2 E2 | [CEAc]4 [CEAc]2 [CEAc]2 | [B,EGB]6 [EGB]2 |!<(! [GBe]4 [EGB]2 [GBe]2!<)! | %9
 [GBeg]4 [GBe]2 [GBe]2 | [Fd]2 [DB]2 [CF=A]2 [EFc]2 | [DFB]2 B,>B, B,2 B,2 | z (B,FA) z (B,GE) | %13
 z (B,FD) z (B,FD) | z (B,GE) z (B,FD) | z (B,GE) (BGEB,) | _DE_dB CEcA | B,EBG B,EBG | %18
 A,EcA B,EBG | (A,CEA cEAc) | (CEAc) (BCAC) | (A,CFA) (GCFC) | (A,CFA) (A,CFA) | z (B,DF BFDB,) | %24
 z (B,EG BGEB,) | z (G,CE GECG,) | (=A,CEF) (B,DFE) | (DB,DF BFDB,) | z (BB,B) z (BB,B) | %29
 z (_d_Dd) z (dDd) | z (_DF_c) z (DFc) | z (B,_D_G BGDB,) | z (_CE_G _cGEC) | z (=A,E_G =AGEA,) | %34
 z (B,EG [DF_A]B,[EG]B,) | ([DF]BAF DB,A,F,) | E4 D2 E2 | G4 E4 | [CEAc]4 [CEAc]2 [CEAc]2 | %39
 [B,EGB]4 z (EeE) | z (DdD) z (CcC) | z (B,BB,) z (B,EG) | z (B,DF AB,DF) | (EGBe)!ff! (EGce) | %44
 (DGBd) (CEAc) | (B,DFB) (G,CEG) | (F,A,CF) (A,CFA) | z (B,FA BAFB,) | [EG]2 [Bb]2 [Ee]2 [Gg]2 | %49
 [B,EGB]4 [DFA]4 | [B,EG]2 [B,B]2 [E,E]2 [G,G]2 | [DGB]4 [DFA]2 [A,DF]2 | [G,B,E]2 z2 [GBe]2 z2 | %53
 [GBeg]2 z2 [Begb]2 z2 | !///-!E2 E,2 !///-!!fermata!E2 E,2 |] %55
V:5
 B,4 [B,D]2 x2 | E4 [EG]2 x2 | [GB]4 x4 | [A,D]4 x4 | x8 | x8 | x8 | x8 | x8 | x8 | x8 | x8 | x8 | %13
 x8 | x8 | x8 | !^!_D2 x2 !^!C2 x2 | !^!B,2 x2 !^!B,2 x2 | !^!A,2 x2 !^!B,2 x2 | x8 | x8 | x8 | %22
 x8 | x8 | x8 | x8 | x8 | x8 | x8 | x8 | x8 | x8 | x8 | x8 | x8 | x8 | x8 | x8 | x8 | x8 | x8 | %41
 x8 | x8 | x8 | x8 | x8 | x8 | x8 | x8 | x8 | x8 | B,6 x2 | x8 | x8 | x8 |] %55
V:6
 (E,4 F,2) z2 | (A,4 B,2) z2 | [E,,E,]4 [G,,G,]2 [E,,E,]2 | [B,,,B,,]4 [E,,E,]2 E,2 | %4
 [E,,E,]4 [D,,D,]2 [E,,E,]2 | [G,,G,]4 [E,,E,]2 [E,,E,]2 | %6
 [A,,,A,,]3 [B,,,B,,] [C,,C,]2 [A,,,A,,]2 | [E,,E,]2 [E,E]2 [B,,B,]2 [G,,G,]2 | %8
 !///-!E,,2 E,2 [E,,E,]2 E,2 | !///-!E,,2 E,2 [E,,E,]2 [E,,E,]2 | [F,,F,]4 [F,,F,]2 [F,,F,]2 | %11
 [B,,,B,,]2 B,,>B,, B,,2 B,,2 | [D,,D,]4 [E,,E,]4 | B,,4 A,,4 | G,,4 A,,4 | G,,8 | %16
 [G,,,G,,]4 [A,,,A,,]4 | [E,,E,]4 [_D,,_D,]4 | [C,,C,]4 [_D,,_D,]4 | [C,,C,]8 | [A,,,A,,]8 | %21
 [A,,,A,,]8 | [F,,,F,,]8 | [B,,,B,,]8 | G,,8 | [C,,C,]8 | F,,4 [F,,F,]4 | [B,,,B,,]8 | %28
 [B,,,B,,]4 [B,,,B,,]2 [B,,,B,,]2 | [_D,,_D,]4 [D,,D,]4 | [_D,,_D,]4 [D,,D,]4 | [_G,,_G,]8 | %32
 [_C,,_C,]8 | [_C,,_C,]8 | [B,,,B,,]8 | [B,,,B,,](B,A,F, D,B,,A,,F,,) | %36
 [E,,E,]4 [D,,D,]2 [E,,E,]2 | [G,,G,]4 [E,,E,]4 | [A,,,A,,]3 [B,,,B,,] [C,,C,]2 [A,,,A,,]2 | %39
 [E,,E,]4 [C,,C,]4 | [B,,,B,,]4 [A,,,A,,]4 | [G,,,G,,]4 [E,,,E,,]4 | %42
 [B,,,B,,]4 [B,,,B,,]2 [A,,,A,,]2 | [G,,,G,,]4 [C,,C,]4 | G,,4 A,,4 | [B,,,B,,]4 [C,,C,]4 | %46
 F,,4 [F,,F,]4 | [B,,,B,,]8 | [E,,E,]2 B,2 E,2 G,2 | !///-!B,,,2 B,,2 !///-!B,,,2 B,,2 | %50
 E,,2 [B,,,B,,]2 [G,,G,]2 [E,,E,]2 | !///-!B,,,2 B,,2 !///-!B,,,2 B,,2 | %52
 [E,,G,,B,,E,]2 [E,,G,,B,,E,]4 [E,,G,,B,,E,]2- | [E,,G,,B,,E,]2 [E,,G,,B,,E,]4 [E,,G,,B,,E,]2 | %54
 !///-!E,,,2 E,,2 !///-!!fermata!E,,,2 E,,2 |] %55
V:7
 E,,3 G,, B,,2 x2 | A,,3 C, E,2 x2 | x8 | x8 | x8 | x8 | x8 | x8 | x8 | x8 | x8 | x8 | x8 | x8 | %14
 x8 | x8 | x8 | x8 | x8 | x8 | x8 | x8 | x8 | x8 | x8 | x8 | x8 | x8 | x8 | x8 | x8 | x8 | x8 | %33
 x8 | x8 | x8 | x8 | x8 | x8 | x8 | x8 | x8 | x8 | x8 | x8 | x8 | x8 | x8 | x8 | x8 | x8 | x8 | %52
 x8 | x8 | x8 |] %55

